assets/guide-commuterline-icon.svg

<svg width="150" height="150" viewBox="0 0 150 150" fill="none" xmlns="http://www.w3.org/2000/svg">
<circle cx="75" cy="75" r="75" fill="#FFFFFF"/>
<path d="M90.773 103.829C92.9833 107.625 95.0915 111.242 97.1952 114.85C97.0541 115.066 96.8696 114.973 96.721 114.973C95.5596 114.983 94.3967 114.949 93.2369 114.992C93.013 115.02 92.786 114.976 92.5891 114.865C92.3923 114.754 92.2359 114.582 92.143 114.375C90.2269 111.054 88.2657 107.761 86.3466 104.443C86.2593 104.258 86.117 104.105 85.9396 104.006C85.7621 103.906 85.5582 103.864 85.3563 103.887C78.388 103.903 71.4212 103.94 64.4544 103.859C63.9733 103.802 63.4869 103.903 63.0675 104.147C62.6481 104.391 62.3182 104.765 62.1271 105.214C60.397 108.321 58.5379 111.358 56.7553 114.437C56.6793 114.617 56.5482 114.768 56.3811 114.867C56.214 114.967 56.0197 115.01 55.8265 114.99C54.6666 114.957 53.5053 114.98 52.3439 114.978C51.6807 114.978 51.6777 114.975 52.0093 114.405C53.9494 111.074 55.8895 107.743 57.8297 104.413C57.9122 104.269 57.9887 104.122 58.0998 103.921C56.9828 103.813 55.8596 103.785 54.7387 103.838C54.4451 103.853 54.1517 103.804 53.8793 103.692C53.6068 103.581 53.3619 103.411 53.1616 103.194C52.1653 102.153 51.1465 101.135 50.1051 100.14C49.8929 99.95 49.7256 99.7148 49.6155 99.4514C49.5054 99.188 49.4553 98.9031 49.4689 98.6176C49.4914 97.6608 49.4479 96.7025 49.4839 95.7458C49.5293 95.4595 49.479 95.1662 49.3411 94.9118C49.2031 94.6574 48.9853 94.4563 48.7217 94.3401C48.1296 94.0926 47.6401 93.6474 47.3355 93.0793C47.0308 92.5112 46.9295 91.8548 47.0486 91.2203C47.1402 86.5876 47.0741 81.9504 47.0666 77.3146C47.0546 68.1716 47.0421 59.0276 47.0291 49.8825C47.0261 47.6289 47.0441 45.3753 47.0711 43.1216C47.0896 42.2696 47.2812 41.4303 47.634 40.6557C47.9867 39.881 48.4933 39.1873 49.1223 38.6174C49.5498 38.1997 50.0928 37.922 50.6798 37.8208C54.8032 37.0605 58.904 36.1718 63.0679 35.6548C65.7478 35.3223 68.4412 35.1484 71.1406 35.0562C75.5474 34.9046 79.9593 35.0597 84.3449 35.5203C89.0224 35.9807 93.6649 36.7497 98.2425 37.8223C99.1136 38.0976 99.8938 38.6068 100.499 39.2952C101.105 39.9836 101.512 40.8252 101.679 41.7295C101.853 42.3217 101.933 42.9379 101.916 43.5554C101.929 51.9759 101.942 60.3969 101.955 68.8184C101.965 75.0277 101.98 81.2369 102 87.4461C102.006 89.2115 101.907 90.9709 101.818 92.7318C101.823 92.9137 101.773 93.0928 101.675 93.2459C101.578 93.399 101.437 93.519 101.271 93.5903C99.6815 94.272 99.3829 95.519 99.4279 97.1393C99.5044 99.9416 99.821 99.1178 97.7729 101.216C97.0766 101.928 96.3414 102.6 95.6496 103.315C95.4828 103.492 95.2799 103.629 95.055 103.719C94.8301 103.808 94.5886 103.847 94.3472 103.834C93.2113 103.819 92.077 103.829 90.773 103.829ZM82.7724 45.5807C78.2139 45.5807 73.6524 45.6275 69.0954 45.555C68.7766 45.5265 68.4555 45.5687 68.1546 45.6785C67.8538 45.7883 67.5804 45.9632 67.3538 46.1908C67.1271 46.4184 66.9527 46.6932 66.8427 46.9959C66.7327 47.2986 66.6898 47.6219 66.7171 47.9431C66.7621 50.7077 66.7306 53.4722 66.7306 56.2367C66.7306 59.1282 66.7246 62.0197 66.7336 64.9112C66.7054 65.1937 66.7366 65.479 66.8253 65.7485C66.914 66.018 67.0581 66.2657 67.2483 66.4752C67.4385 66.6848 67.6705 66.8516 67.929 66.9647C68.1876 67.0778 68.4669 67.1346 68.7488 67.1315C78.0789 67.1407 87.4089 67.1407 96.739 67.1315C96.962 67.1686 97.1906 67.1516 97.4058 67.0821C97.621 67.0125 97.8167 66.8923 97.9766 66.7315C98.1366 66.5706 98.2563 66.3738 98.3257 66.1571C98.3952 65.9404 98.4124 65.7102 98.3761 65.4855C98.3851 59.4244 98.3851 53.3644 98.3761 47.3053C98.3731 46.0387 97.8914 45.5822 96.6415 45.5807H82.7724ZM50.6423 56.3637C50.6423 59.3836 50.6348 62.4036 50.6453 65.4236C50.6483 66.6479 51.1345 67.1331 52.3349 67.1346C56.0291 67.1391 59.7238 67.1391 63.419 67.1346C63.6998 67.1555 63.9818 67.1158 64.2462 67.0183C64.5106 66.9207 64.7513 66.7675 64.9522 66.5688C65.1531 66.3701 65.3097 66.1305 65.4115 65.866C65.5132 65.6016 65.5578 65.3183 65.5422 65.0351C65.5498 59.2506 65.5498 53.4661 65.5422 47.6817C65.5649 47.3989 65.5261 47.1146 65.4286 46.8485C65.331 46.5824 65.177 46.3409 64.9773 46.1409C64.7776 45.9409 64.537 45.7872 64.2723 45.6904C64.0076 45.5936 63.7251 45.5562 63.4445 45.5807H52.4879C51.055 45.5807 50.6438 45.9903 50.6423 47.4323C50.6393 50.4099 50.6393 53.387 50.6423 56.3637ZM74.4507 85.7773H98.7692C99.788 85.7773 100.024 85.54 100.019 84.4986C100.018 83.8396 99.9921 83.1807 99.9876 82.5216C99.9801 81.4847 99.8105 81.3124 98.7677 81.3124C86.144 81.3109 73.5204 81.3104 60.8967 81.3109C57.246 81.3109 53.5943 81.3114 49.9416 81.3124C49.2093 81.3139 48.9618 81.5754 48.9633 82.313C48.9633 83.0778 48.9618 83.8426 48.9633 84.6074C48.9633 85.6428 49.0983 85.7773 50.1321 85.7773H74.4507ZM93.8295 76.6539C93.833 76.1527 93.6883 75.6618 93.414 75.2436C93.1396 74.8254 92.748 74.4989 92.2889 74.3055C91.8298 74.1122 91.324 74.0608 90.8358 74.1578C90.3476 74.2549 89.8991 74.496 89.5474 74.8506C89.1956 75.2051 88.9565 75.657 88.8605 76.1489C88.7644 76.6407 88.8158 77.1502 89.008 77.6125C89.2002 78.0748 89.5246 78.4691 89.9399 78.7452C90.3552 79.0213 90.8426 79.1668 91.3402 79.163C92.0001 79.161 92.6323 78.896 93.0988 78.4258C93.5652 77.9557 93.8279 77.3186 93.8295 76.6539ZM54.6696 76.6343C54.6694 77.3064 54.9343 77.951 55.4059 78.4263C55.8775 78.9017 56.5173 79.1689 57.1845 79.1691C57.8516 79.1693 58.4916 78.9025 58.9635 78.4274C59.4354 77.9523 59.7006 77.3079 59.7008 76.6358C59.702 76.3023 59.6379 75.9718 59.5121 75.6633C59.3863 75.3549 59.2012 75.0744 58.9676 74.8381C58.734 74.6018 58.4563 74.4143 58.1506 74.2863C57.8449 74.1583 57.5171 74.0924 57.186 74.0923C56.8549 74.0922 56.527 74.1579 56.2212 74.2857C55.9154 74.4135 55.6377 74.6009 55.4039 74.8371C55.1701 75.0732 54.9849 75.3535 54.8589 75.6619C54.7329 75.9704 54.6686 76.3008 54.6696 76.6343Z" fill="#00152B"/>
</svg>

<svg xmlns="http://www.w3.org/2000/svg" width="150" height="150" fill="none" viewBox="0 0 150 150"><circle cx="75" cy="75" r="75" fill="#FFF"/><path fill="#00152B" d="M90.773 103.829c2.21 3.796 4.319 7.413 6.422 11.021-.14.216-.325.123-.474.123-1.161.01-2.324-.024-3.484.019a1.05 1.05 0 0 1-1.094-.617c-1.916-3.321-3.877-6.614-5.796-9.932a.98.98 0 0 0-.99-.556c-6.969.016-13.936.053-20.903-.028a2.23 2.23 0 0 0-1.386.288c-.42.244-.75.618-.94 1.067-1.731 3.107-3.59 6.144-5.373 9.223a.91.91 0 0 1-.928.553c-1.16-.033-2.322-.01-3.483-.012-.663 0-.666-.003-.335-.573l5.82-9.992c.083-.144.16-.291.27-.492a23.4 23.4 0 0 0-3.36-.083 2.007 2.007 0 0 1-1.577-.644 97 97 0 0 0-3.057-3.054 1.92 1.92 0 0 1-.636-1.522c.022-.957-.021-1.915.015-2.872a1.32 1.32 0 0 0-.143-.834 1.3 1.3 0 0 0-.62-.572 2.8 2.8 0 0 1-1.385-1.26 2.83 2.83 0 0 1-.287-1.86c.091-4.632.025-9.27.018-13.905l-.038-27.432c-.003-2.254.015-4.508.042-6.761.019-.852.21-1.692.563-2.466a6.2 6.2 0 0 1 1.488-2.039c.428-.417.97-.695 1.558-.796 4.123-.76 8.224-1.65 12.388-2.166 2.68-.333 5.373-.507 8.073-.599a95 95 0 0 1 13.204.464c4.677.46 9.32 1.23 13.898 2.302a5 5 0 0 1 2.256 1.473 5.1 5.1 0 0 1 1.18 2.435c.174.592.254 1.208.237 1.825l.039 25.263q.015 9.315.045 18.628c.006 1.766-.093 3.525-.182 5.286a.91.91 0 0 1-.547.858c-1.59.682-1.888 1.929-1.843 3.55.076 2.802.393 1.978-1.655 4.076-.696.712-1.432 1.384-2.123 2.099a1.67 1.67 0 0 1-1.303.519c-1.136-.015-2.27-.005-3.574-.005m-8-58.248c-4.56 0-9.12.046-13.678-.026a2.18 2.18 0 0 0-1.741.636 2.21 2.21 0 0 0-.637 1.752c.045 2.765.014 5.53.014 8.294 0 2.891-.006 5.783.003 8.674a2.03 2.03 0 0 0 .514 1.564 2 2 0 0 0 1.5.657q13.995.014 27.991 0a1.41 1.41 0 0 0 1.238-.4 1.44 1.44 0 0 0 .4-1.246q.012-9.093 0-18.18c-.004-1.267-.486-1.724-1.736-1.725zm-32.13 10.783c0 3.02-.008 6.04.002 9.06.003 1.224.49 1.71 1.69 1.71q5.541.007 11.084 0a1.97 1.97 0 0 0 1.533-.565 2 2 0 0 0 .59-1.534q.012-8.676 0-17.353a1.97 1.97 0 0 0-.565-1.541 1.94 1.94 0 0 0-1.533-.56H52.489c-1.433 0-1.844.41-1.846 1.851q-.005 4.467 0 8.932M74.45 85.777h24.318c1.019 0 1.255-.237 1.25-1.278-.001-.66-.027-1.318-.031-1.977-.008-1.037-.177-1.21-1.22-1.21q-18.936-.002-37.871-.001l-10.955.001c-.733.002-.98.263-.979 1.001v2.294c0 1.036.135 1.17 1.17 1.17zm19.379-9.123a2.54 2.54 0 0 0-.416-1.41 2.5 2.5 0 0 0-1.125-.939 2.49 2.49 0 0 0-2.742.546 2.543 2.543 0 0 0-.54 2.762c.193.462.518.856.933 1.132s.903.422 1.4.418a2.5 2.5 0 0 0 1.759-.737c.466-.47.729-1.107.73-1.772m-39.16-.02c0 .672.264 1.317.736 1.792a2.506 2.506 0 0 0 3.558.001c.471-.475.737-1.12.737-1.791a2.55 2.55 0 0 0-.733-1.798 2.52 2.52 0 0 0-1.782-.746 2.5 2.5 0 0 0-1.782.745 2.53 2.53 0 0 0-.734 1.797"/></svg>
